X:018 
T:Big John's Reel
S:John Cathcart (Fermanagh)
F:file ID: cre.5/018big_j
B:CRE5.141 (Ril SheÃÂÃÂÃÂÃÂ¡in MhÃÂÃÂÃÂÃÂ³ir)
L:1/8
Q:180
M:C
R:reel
K:D
DFAd fdAF|G2GF GABc|defd ecAF|E2ED EGFE|
DFAd fdAF|G2GF GABc|defd edBc|1 d2ec dBAF:|\
[2 d2ec d2||
|: ef|gebe ge~e2|gebe ge~e2|fdad Bd~d2|d2ad Bd~d2|
gebe ge~e2|gebe ge~e2|fafd egec|1 d2ec d2:|\
[2 d2ec dBAF|D8||

%%%

